static/img/kroki/c17cb6fbaba53c88be795daca8707e54.svg

<?xml version="1.0" encoding="us-ascii" standalone="no"?><svg xmlns="http://www.w3.org/2000/svg" xmlns:xlink="http://www.w3.org/1999/xlink" contentStyleType="text/css" height="152px" preserveAspectRatio="none" style="width:314px;height:152px;" version="1.1" viewBox="0 0 314 152" width="314px" zoomAndPan="magnify"><defs/><g><!--class azure_network_dns_record_set--><g id="elem_azure_network_dns_record_set"><rect codeLine="23" fill="#3D176E" height="39.7891" id="azure_network_dns_record_set" rx="2.5" ry="2.5" style="stroke:#000D19;stroke-width:0.5;" width="300" x="7" y="106.79"/><ellipse cx="22" cy="126.6845" fill="#ADD1B2" rx="11" ry="11" style="stroke:#181818;stroke-width:1.0;"/><path d="M24.9688,132.3252 Q24.3906,132.622 23.75,132.7627 Q23.1094,132.9189 22.4063,132.9189 Q19.9063,132.9189 18.5781,131.2783 Q17.2656,129.622 17.2656,126.497 Q17.2656,123.372 18.5781,121.7158 Q19.9063,120.0595 22.4063,120.0595 Q23.1094,120.0595 23.75,120.2158 Q24.4063,120.372 24.9688,120.6689 L24.9688,123.3877 Q24.3438,122.8095 23.75,122.5439 Q23.1563,122.2627 22.5313,122.2627 Q21.1875,122.2627 20.5,123.3408 Q19.8125,124.4033 19.8125,126.497 Q19.8125,128.5908 20.5,129.6689 Q21.1875,130.7314 22.5313,130.7314 Q23.1563,130.7314 23.75,130.4658 Q24.3438,130.1845 24.9688,129.6064 L24.9688,132.3252 Z " fill="#000000"/><text fill="#D9B8FF" font-family="Helvetica" font-size="17" lengthAdjust="spacing" textLength="258" x="41" y="132.5698">azure_network_dns_record_set</text></g><!--class azure_network_dns_zone--><g id="elem_azure_network_dns_zone"><rect codeLine="26" fill="#3D176E" height="39.7891" id="azure_network_dns_zone" rx="2.5" ry="2.5" style="stroke:#000D19;stroke-width:0.5;" width="253" x="30.5" y="7"/><ellipse cx="45.5" cy="26.8945" fill="#ADD1B2" rx="11" ry="11" style="stroke:#181818;stroke-width:1.0;"/><path d="M48.4688,32.5352 Q47.8906,32.832 47.25,32.9727 Q46.6094,33.1289 45.9063,33.1289 Q43.4063,33.1289 42.0781,31.4883 Q40.7656,29.832 40.7656,26.707 Q40.7656,23.582 42.0781,21.9258 Q43.4063,20.2695 45.9063,20.2695 Q46.6094,20.2695 47.25,20.4258 Q47.9063,20.582 48.4688,20.8789 L48.4688,23.5977 Q47.8438,23.0195 47.25,22.7539 Q46.6563,22.4727 46.0313,22.4727 Q44.6875,22.4727 44,23.5508 Q43.3125,24.6133 43.3125,26.707 Q43.3125,28.8008 44,29.8789 Q44.6875,30.9414 46.0313,30.9414 Q46.6563,30.9414 47.25,30.6758 Q47.8438,30.3945 48.4688,29.8164 L48.4688,32.5352 Z " fill="#000000"/><text fill="#D9B8FF" font-family="Helvetica" font-size="17" lengthAdjust="spacing" textLength="211" x="64.5" y="32.7798">azure_network_dns_zone</text></g><!--link azure_network_dns_zone to azure_network_dns_record_set--><g id="link_azure_network_dns_zone_azure_network_dns_record_set"><path codeLine="29" d="M157,47.22 C157,64.36 157,83.27 157,100.41 " fill="none" id="azure_network_dns_zone-to-azure_network_dns_record_set" style="stroke:#1A83AF;stroke-width:2.0;"/><polygon fill="#1A83AF" points="157,106.41,161,97.41,157,101.41,153,97.41,157,106.41" style="stroke:#1A83AF;stroke-width:2.0;"/></g><!--SRC=[XT31IiD040RWUvvYeUT2Oj0c5o4MYbwAM6yYOPgTRPSaksLsOcd4TxUrAcjYqkl-7pl_p5PB55Zl-21ghDT8Bd2bDZiWg4L6PFTpMraI4wL0nRDkkB26Bu8br2ZkiNf3rWLqnVDM5wL1vyIL5zr1KMx8DaQUlsS2uuuH6lRKl0BdCcRIwuRHAoFJTQ9KLtO_dSGocjrWZrcIIDya34CPfLroSTJethzYfLiKaN-qfMNirUoD-5AZBK_2AzbRz2SVxFW8Kcgp4TVUszEv4ncaF- -hBKYxFsa5bVF7E4P2ouSTpdjROPf8DViNFmpXe3YTJa3R4EO6UM-fpALnEM5nl4VkaCLx47mCkjOQF8k1RFeoYR8apXQlqzlHES4d]--></g></svg>

<svg xmlns="http://www.w3.org/2000/svg" width="314" height="152" viewBox="0 0 314 152"><rect width="300" height="39.789" x="7" y="106.79" fill="#3D176E" rx="2.5" ry="2.5" style="stroke:#000d19;stroke-width:.5"/><circle cx="22" cy="126.684" r="11" fill="#ADD1B2" style="stroke:#181818;stroke-width:1"/><path d="M24.969 132.325q-.578.297-1.219.438-.64.156-1.344.156-2.5 0-3.828-1.64-1.312-1.657-1.312-4.782t1.312-4.781q1.328-1.656 3.828-1.656.703 0 1.344.156.656.156 1.219.453v2.719q-.625-.579-1.219-.844-.594-.281-1.219-.281-1.343 0-2.031 1.078-.687 1.062-.687 3.156t.687 3.172q.688 1.062 2.031 1.062.625 0 1.219-.265.594-.281 1.219-.86z"/><text x="41" y="132.57" fill="#D9B8FF" font-family="Helvetica" font-size="17" textLength="258">azure_network_dns_record_set</text><rect width="253" height="39.789" x="30.5" y="7" fill="#3D176E" rx="2.5" ry="2.5" style="stroke:#000d19;stroke-width:.5"/><circle cx="45.5" cy="26.895" r="11" fill="#ADD1B2" style="stroke:#181818;stroke-width:1"/><path d="M48.469 32.535q-.578.297-1.219.438-.64.156-1.344.156-2.5 0-3.828-1.64-1.312-1.657-1.312-4.782t1.312-4.781q1.328-1.656 3.828-1.656.703 0 1.344.156.656.156 1.219.453v2.719q-.625-.578-1.219-.844-.594-.281-1.219-.281-1.343 0-2.031 1.078-.687 1.062-.687 3.156T44 29.879q.688 1.062 2.031 1.062.625 0 1.219-.265.594-.281 1.219-.86z"/><text x="64.5" y="32.78" fill="#D9B8FF" font-family="Helvetica" font-size="17" textLength="211">azure_network_dns_zone</text><path fill="none" d="M157 47.22v53.19" style="stroke:#1a83af;stroke-width:2"/><path fill="#1A83AF" d="m157 106.41 4-9-4 4-4-4z" style="stroke:#1a83af;stroke-width:2"/></svg>
